data/assets/pixra/velsku/telegram.svg

<?xml version="1.0" encoding="UTF-8"?>
<svg width="1000px" height="1000px" viewBox="0 0 1000 1000" version="1.1" xmlns="http://www.w3.org/2000/svg" xmlns:xlink="http://www.w3.org/1999/xlink">
    <!-- Generator: Sketch 53.2 (72643) - https://sketchapp.com -->
    <title>Artboard</title>
    <desc>Created with Sketch.</desc>
    <defs>
        <linearGradient x1="50%" y1="0%" x2="50%" y2="99.2583404%" id="linearGradient-1">
            <stop stop-color="#2AABEE" offset="0%"></stop>
            <stop stop-color="#229ED9" offset="100%"></stop>
        </linearGradient>
    </defs>
    <g id="Artboard" stroke="none" stroke-width="1" fill="none" fill-rule="evenodd">
        <circle id="Oval" fill="url(#linearGradient-1)" cx="500" cy="500" r="500"></circle>
        <path d="M226.328419,494.722069 C372.088573,431.216685 469.284839,389.350049 517.917216,369.122161 C656.772535,311.36743 685.625481,301.334815 704.431427,301.003532 C708.567621,300.93067 717.815839,301.955743 723.806446,306.816707 C728.864797,310.92121 730.256552,316.46581 730.922551,320.357329 C731.588551,324.248848 732.417879,333.113828 731.758626,340.040666 C724.234007,419.102486 691.675104,610.964674 675.110982,699.515267 C668.10208,736.984342 654.301336,749.547532 640.940618,750.777006 C611.904684,753.448938 589.856115,731.588035 561.733393,713.153237 C517.726886,684.306416 492.866009,666.349181 450.150074,638.200013 C400.78442,605.66878 432.786119,587.789048 460.919462,558.568563 C468.282091,550.921423 596.21508,434.556479 598.691227,424.000355 C599.00091,422.680135 599.288312,417.758981 596.36474,415.160431 C593.441168,412.561881 589.126229,413.450484 586.012448,414.157198 C581.598758,415.158943 511.297793,461.625274 375.109553,553.556189 C355.154858,567.258623 337.080515,573.934908 320.886524,573.585046 C303.033948,573.199351 268.692754,563.490928 243.163606,555.192408 C211.851067,545.013936 186.964484,539.632504 189.131547,522.346309 C190.260287,513.342589 202.659244,504.134509 226.328419,494.722069 Z" id="Path-3" fill="#FFFFFF"></path>
    </g>
</svg>

<svg xmlns="http://www.w3.org/2000/svg" width="1000" height="1000"><defs><linearGradient id="a" x1="50%" x2="50%" y1="0%" y2="99.258%"><stop offset="0%" stop-color="#2AABEE"/><stop offset="100%" stop-color="#229ED9"/></linearGradient></defs><g fill="none" fill-rule="evenodd"><circle cx="500" cy="500" r="500" fill="url(#a)"/><path fill="#FFF" d="M226.328 494.722c145.76-63.505 242.957-105.372 291.59-125.6 138.855-57.755 167.707-67.787 186.513-68.118 4.137-.073 13.385.952 19.375 5.813 5.059 4.104 6.45 9.649 7.117 13.54.666 3.892 1.495 12.757.836 19.684-7.525 79.061-40.084 270.924-56.648 359.474-7.009 37.47-20.81 50.033-34.17 51.262-29.036 2.672-51.085-19.189-79.208-37.624-44.006-28.847-68.867-46.804-111.583-74.953-49.366-32.531-17.364-50.411 10.77-79.631C468.281 550.92 596.214 434.556 598.69 424c.31-1.32.597-6.241-2.326-8.84-2.924-2.598-7.239-1.71-10.353-1.003-4.413 1.002-74.714 47.468-210.902 139.4-19.955 13.702-38.03 20.378-54.223 20.028-17.853-.386-52.194-10.094-77.723-18.393-31.313-10.178-56.2-15.56-54.032-32.846 1.128-9.003 13.527-18.211 37.196-27.624Z"/></g></svg>
